X:1
T:Dorchester
T:E minor Samuel Babcock, 1795
T:Transcribed from The Middlesex Harmony, 1795.
T:Isaac Watts, 1709 (Hymn 122, Book 2)     88. 88. (L. M.)
%%score [ 1 2 3 4 ]
L:1/8
Q:1/4=140
M:4/4
K:G
V:1 treble nm="Treble" snm="Tr."
V:2 treble nm="Counter" snm="C."
V:3 treble-8 nm="Tenor" snm="T."
V:4 bass nm="Bass" snm="B."
V:1
"_1. My God, permit me not to       be      A     stranger     to    my  –  self   and    thee;   Amidst a thousand thoughts I rove,  For–get–ful of my   high – est    love. ____  Why""_2. Call  me away from flesh and sense,  One sovereign word can  draw me thence;   I     would  o – bey the voice divine,  And all  in–fe–rior  joys  re  –  sign. _____  Be" B4 G2 G2 | %1
 B2 B2 B2 e2 | ^d6 d2 | B2 BA G2 GA | B4 B4 | B8 | e4 B2 BA | G2 G2 A2 A2 | B6 A2 | B2 d2 d2 c2 | %10
 B4 B4 | B8- | B4 B4 |: %13
"_should my passions mix _________   with  earth, And thus de – base my       heav'nly  birth?                                                                Why should I cleave   to   things  be –  low, ____""_earth with all her scenes ________  with–drawn, Let noise and va –  ni   –   ty     be – gone;                                                                   In     se–cret   si   –   lence    of     the  mind ____" B2 A2 G2 A2 | %14
 (d3 cBc) dc | B4 B4 | G2 GA B2 BA | G4 A4 | B6 z2 | z8 | z4 z2 B2 | B2 e2 eg fe | d2 B2 B4- | %23
"________      And             let my God, my   Sa  –  vior,     go? _____________    Why should I cleave to things be   –   low,   And   let   my    God,  my         Savior,   go? Why""________       My     heav'n, and there my God,   I          find. ____________     In     se – cret  silence    of        the       mind  My  heav'n,  and  there  my   God,  I  find.  Be" B4 G4 | %24
 B2 B2 ^d2 d2 | gf e^d e4- | e6 B2 | d2 d2 d2 B2 | e2 ge ^d3 c | B2 e2 d2 c2 | B6 B2 |1 B4 B4 :|2 %32
 B8 |] %33
V:2
 E4 G2 G2 | G2 G2 D2 G2 | F6 F2 | E2 E2 D2 D2 | G4 F4 | E8 | G4 E2 E2 | D2 D2 F2 F2 | G6 A2 | %9
 G2 F2 G2 E2 | E4 ^D4 | E8- | E4 z4 |: z8 | z8 | %15
 z4"_And   thus de – base    my   heav'nly birth?                                                                                                        Why      should I cleave to""_Let    noise and     va –  ni  –  ty    be  gone;                                                                                                            In         se – cret  si–lence" G4 | %16
 G2 G2 G2 E2 | D4 D4 | D6 z2 | z8 | z8 | z4 z2 D2 | G2 G2 D2 D2 | %23
"_things below, And      let               my  God,   my         Sa  –  vior,    go?""_of  the mind  My       heav'n,       and there  my        God,   I        find." G2 G2 G2 E2 | %24
 F6 F2 | B2 B2 B2 BA | G6 F2 | G2 G2 A2 A2 | G2 EG F3 F | G2 B2 B2 A>G | F6 F2 |1 E4 z4 :|2 E8 |] %33
V:3
"_2. Call  me away from flesh and sense,  One sovereign word can  draw me thence;   I     would  o – bey the voice divine,  And all  in–fe–rior  joys  re  –  sign. _____  Be""_1. My God, permit me not to       be      A     stranger     to    my  –  self   and    thee;   Amidst a thousand thoughts I rove,  For–get–ful of my   high – est    love. ____  Why" B4 B2 B2 | %1
 B2 e2 d2 c2 | B6 B2 | G2 GA B2 B2 | e4 ^d4 | e8 | B4 G2 GA | B2 B2 d2 d2 | d6 d2 | B2 B2 B2 A2 | %10
 G4 F4 | E8- | E4 z4 |: z8 | z8 | %15
 z4"_And   thus de – base    my   heav'nly birth? Why should I cleave to things  below,  _________        Why              should I cleave to""_Let    noise and     va –  ni  –  ty    be  gone;    In     se–cret  si – lence     of  the mind _________         In                  se–cret  si–lence" e4 | %16
 B2 BA G2 GA | B4 A4 | G6 A2 | B2 e2 eg fe | d2 B2 B4- | B4 G4 | B2 Bc d2 d2 | %23
"_things below, And    let  my God, my   Sa  –  vior,      go? ____________  Why should I cleave to  things   be   –   low,  And    let   my   God,   my        Savior,    go?""_of  the mind  My heav'n, and there my God,  I        find. ___________    In    se – cret  silence    of          the      mind  My  heav'n,  and  there  my   God,   I  find." e2 e2 e2 ge | %24
 ^d2 d2 B2 B2 | G2 GA B4- | B6 B2 | B2 Bc d2 d2 | B>c BA B3 A | G2 GA B2 e2 | ^d6 d2 |1 e4 z4 :|2 %32
 e8 |] %33
V:4
 E,4 E,2 E,2 | G,2 G,2 G,2 E,2 | B,,6 B,,2 | E,2 E,2 G,2 G,F, | E,4 B,,4 | E,8 | E,4 E,2 E,2 | %7
 G,2 G,2 D,2 D,2 | G,6 F,2 | E,2 D,2 G,2 A,2 | B,4 B,,4 | E,8- | E,4 E,4 |: %13
"_should my passions mix _________   with  earth, And thus de – base my       heav'nly  birth?                               Why should I cleave to things  below,  And      let                     my""_earth with all her scenes ________  with–drawn, Let noise and va –  ni   –   ty     be – gone;                                  In         secret   silence   of   the  mind   My       heav'n,            and" G,2 F,2 E,2 F,2 | %14
 (G,3 A, B,2) B,,2 | E,4 E,4 | G,2 G,F, E,2 E,2 | B,,4 D,4 | G,6 z2 | z4 z2 D,2 | G,2 G,2 B,2 G,2 | %21
 G,2 E,2 E,2 D,2 | G,6 F,2 | %23
"_God,          my           Sa       –      vior,  go? ______________________________""_there         my           God,             I       find. _____________________________" E,6 E,2 | %24
 B,,6 B,,2 | E,8- | E,6 B,2 | G,2 G,2 D,2 D,2 | E,2 E,2 B,,3 B,, | E,2 E,F, G,2 A,2 | B,4 B,,4 |1 %31
 E,4"_Be""_Why" E,4 :|2 E,8 |] %33

